src/icons/solid/media/wav-file.svg

<svg width="24" height="24" viewBox="0 0 24 24" fill="none" xmlns="http://www.w3.org/2000/svg">
<g clip-path="url(#clip0_4513_366)">
<path d="M20.2523 5.2005L16.8928 1.76474C16.4052 1.26599 15.7658 1 15.0831 1H5.56833C4.14871 1 3 2.17481 3 3.6267V20.3733C3 21.8252 4.14871 23 5.56833 23H18.4317C19.8513 23 21 21.8252 21 20.3733V7.06247C21 6.37531 20.7291 5.69924 20.2523 5.21159V5.2005ZM15.8633 16.1728C15.8633 16.3058 15.8417 16.4277 15.7875 16.5496C15.5816 17.0594 15.0181 17.2922 14.5196 17.0816L11.2143 14.7874C11.0951 14.732 10.9651 14.7098 10.835 14.7098H9.10114C8.57014 14.7098 8.13666 14.2665 8.13666 13.7234V11.7506C8.13666 11.2076 8.57014 10.7642 9.10114 10.7642H10.835C10.9651 10.7642 11.0951 10.7421 11.2143 10.6867L14.5087 8.39244C14.6279 8.33703 14.758 8.31486 14.888 8.31486C15.419 8.31486 15.8525 8.75819 15.8525 9.30126V16.1839L15.8633 16.1728Z" fill="#3C3B44"/>
</g>
<defs>
<clipPath id="clip0_4513_366">
<rect width="24" height="24" fill="white"/>
</clipPath>
</defs>
</svg>

<svg xmlns="http://www.w3.org/2000/svg" width="24" height="24" fill="none" viewBox="0 0 24 24"><g clip-path="url(#a)"><path fill="currentColor" d="m20.252 5.2-3.36-3.435A2.5 2.5 0 0 0 15.084 1H5.568C4.148 1 3 2.175 3 3.627v16.746C3 21.825 4.149 23 5.568 23h12.864C19.852 23 21 21.825 21 20.373V7.063a2.66 2.66 0 0 0-.748-1.851zm-4.389 10.973a.9.9 0 0 1-.075.377.956.956 0 0 1-1.268.532l-3.306-2.295a.9.9 0 0 0-.379-.077H9.101a.98.98 0 0 1-.964-.987v-1.972c0-.543.433-.987.964-.987h1.734c.13 0 .26-.022.38-.077l3.294-2.295a.9.9 0 0 1 .379-.077c.531 0 .964.443.964.986v6.883z"/></g><defs><clipPath id="a"><path fill="currentColor" d="M0 0h24v24H0z"/></clipPath></defs></svg>
